packages/bezier-icons/icons/code.svg

<svg width="24" height="24" viewBox="0 0 24 24" fill="none" xmlns="http://www.w3.org/2000/svg">
<path d="M15.3939 4.08087C15.9015 4.29842 16.1367 4.8863 15.9191 5.39393L9.9191 19.3939C9.70154 19.9016 9.11366 20.1367 8.60603 19.9192C8.0984 19.7016 7.86325 19.1137 8.08081 18.6061L14.0808 4.60609C14.2984 4.09846 14.8862 3.86331 15.3939 4.08087Z" fill="#313234"/>
<path d="M8.20698 4.29289C8.59751 4.68342 8.59751 5.31658 8.20698 5.70711L4.91409 9L8.20698 12.2929C8.59751 12.6834 8.59751 13.3166 8.20698 13.7071C7.81646 14.0976 7.1833 14.0976 6.79277 13.7071L2.79277 9.70711C2.40225 9.31658 2.40225 8.68342 2.79277 8.29289L6.79277 4.29289C7.1833 3.90237 7.81646 3.90237 8.20698 4.29289Z" fill="#313234"/>
<path d="M17.207 10.2929C16.8165 9.90237 16.1834 9.90237 15.7928 10.2929C15.4023 10.6834 15.4023 11.3166 15.7928 11.7071L19.0857 15L15.7928 18.2929C15.4023 18.6834 15.4023 19.3166 15.7928 19.7071C16.1834 20.0976 16.8165 20.0976 17.207 19.7071L21.207 15.7071C21.3946 15.5196 21.4999 15.2652 21.4999 15C21.4999 14.7348 21.3946 14.4804 21.207 14.2929L17.207 10.2929Z" fill="#313234"/>
</svg>

<svg xmlns="http://www.w3.org/2000/svg" width="24" height="24" fill="none" viewBox="0 0 24 24"><path fill="#313234" d="M15.394 4.08a1 1 0 0 1 .525 1.314l-6 14a1 1 0 1 1-1.838-.788l6-14a1 1 0 0 1 1.313-.525M8.207 4.293a1 1 0 0 1 0 1.414L4.914 9l3.293 3.293a1 1 0 1 1-1.414 1.414l-4-4a1 1 0 0 1 0-1.414l4-4a1 1 0 0 1 1.414 0M17.207 10.293a1 1 0 1 0-1.414 1.414L19.086 15l-3.293 3.293a1 1 0 0 0 1.414 1.414l4-4a1 1 0 0 0 0-1.414z"/></svg>
